X:1
T:Title
%%score ( 1 2 ) ( 3 4 )
L:1/8
Q:1/4=105
M:3/4
K:F
V:1 treble nm="Grand Piano, Staff 1"
V:2 treble 
V:3 bass nm="Choir Pad, Christus Consolator"
V:4 bass 
V:1
 [D^F][DF] [DG]3 [DB] | [_EA][E^F] [DG]2 D2 | [D^F][DG] d2 c2 | B-[EB] [^FA]2 A2- | %4
w: By~John~Bacchus~Dykes~(1823\-1876) * * *||||
 [EA]2 [DA][^CA] [Dd][Dc] | [DB][DA] B2- [EB]2 | [FA]4 [CF]2 | [CEG]2 [CF]4- | [CF]4 z2 |] %9
w: |||||
V:2
 x6 | x6 | z2 D4 | .D2 z2 E2 | x6 | z2 D2 z2 | x6 | x6 | x6 |] %9
V:3
 [D,A,][D,A,] [G,B,]3 [G,D] | [G,C][G,C] [G,B,][A,C] [B,D]2 | [A,C][G,B,] [^F,A,]4 | .D2 z2 A,2 | %4
 z6 | [^F,D][F,C] [G,B,]4 | z2 z2 A,2 | z6 | z6 |] %9
V:4
 x6 | x6 | x6 | G,-[G,^C] [D,D]2 D,2- | [D,G,]2 [D,^F,][E,G,] [F,A,][F,A,] | x6 | %6
 [F,C]2 [C,C]2 C,2- | [C,B,]2 [F,A,]4- | [F,A,]4 z2 |] %9

